X: 10034
T: Diarmuid McGig
R: jig
M: 6/8
K: Gmajor
B/A/|GED DEF|GBA G2c|BAB GAB|c3 A2 c|Bcd efg|
dcB AGA|BGE DEG|ABA/B/ AGA|GBB GAA|~G3 G2||
B|def gdc|c3 A2 B/c/|def gdc|dcB/c/ A2 B|def gdB|
dcB AGA|BGE DEG|ABA/B/ AGA|GBB GAA|~G3 G2||

